X: 1616
T: Spellan's Fiddle   #2
R: hornpipe
B: O'Neill's 1850 #1616
O: J.O'Neill
Z: Michael D. Long, 10/10/98
Z: Michael Hogan
Z: Compacted via repeats and multiple endings [JC]
M: C|
L: 1/8
K: A	% and E
c>d \
|: [eA]>ag>b a>fe>c | A>GA>B c>AE>D | C>EA>c \
[1,3 d>cB>A | G>Be>g f>cd>B :|\
[2,4 (3(Bgf) (3(edB) | A2 c2 A2 :|
|: G>A \
|:   B>cB>A G>Be>f | g>ag>e B>eg>b |\
[1,3 a>gf>a g>fe>g | f>b^d>b c>bB>b :|\
[2,4 a>f^d>B (3(dcB) (3(AGF) | (3(EGB) (3(egb) e'2 :|
